!!!!SEGMENT: pl-wtm--r-1350--001-006_stefani-jozef--fraszka-muzyczna-allegretto.krn
!!!cenid: 18xx:1855
!!!COM: Stefani, Józef
!!!COM-rismID: pe30024097
!!!CDT: 1800/04/16-1876/03/19
!!!CNT: Polish
!!!GTL: Fraszka muzyczna
!!!OTL: Allegretto
!!!OMV: 006
!!!PDT:
!!!AGN: Secular
!!!SMS-siglum: PL-Wtm
!!!SMS-shelfmark: R 1350
!!!SMS-shelfwork: 001-006 G
!!!SMS-variant:
!!!SMS-altvar:
!!!NIFC-rismSourceID: 1001119433
!!!NIFC-rismChildID: 1001119467
!!!NIFC-islandoraID: pl-wtm:25286
!!!URL-pdf-islandora: https://repozytorium.nifc.pl/islandora/object/pl-wtm%3A25286/datastream/PDF/view
!!!URL-scan: https://polish.musicsources.pl/pl/lokalizacje/galeria/rekopisy/6202 @EN{Scan on Polish Music Sources Website} @PL{Skany w portalu Dziedzictwo Muzyki Polskiej w otwartym dostępie}
!!!IIIF:
!!!ONB-nifc: UWAGA: skan 0004
!!!AIN: 2 forte
!!!key:
**kern	**fing	**kern	**dynam
*part2	*	*part1	*part1
*staff2	*	*staff1	*
*Iforte	*	*Iforte	*
*I"Fortepiano	*	*I"Fortepiano	*
*I'pf	*	*I'pf	*
*clefG2	*	*clefG2	*
*k[]	*	*k[]	*
*C:	*	*C:	*
*M2/4	*	*M2/4	*
*>[A,B,B]	*	*>[A,B,B]	*
=1	=1	=1	=1
*>A	*	*>A	*
!	!	!LO:TX:i:a:t=Allegretto.	!LO:DY:b:t=mf.:rj
!	!	!LO:TX:a:t=P:all\right:problem	!
8c/L	4	8cc\L	mf
8g/	1	8ee\	.
8e/	2	8gg\	.
8g/J	1	8ee\J	.
=2	=2	=2	=2
!	!	!LO:TX:i:a:t=prawa ręka w iednej pozycyj	!
8B/L	5	8dd\L	.
8g/	1	8ff\J	.
8d/	3	4gg\	.
8g/J	1	.	.
=3	=3	=3	=3
8c/L	4	8cc\L	.
8g/	1	8ee\	.
8e/	2	8gg\	.
8g/J	1	8ee\J	.
=4	=4	=4	=4
*	*below	*	*
!LO:TX:a:t=P:problem=palcowanie z lewej strony akordu	!	!	!
8fL 8B/	5 2	8dd\L	.
*	*above	*	*
8g/J	1	8ee\J	.
*	*below	*	*
!LO:TX:a:t=P:problem=palcowanie z lewej strony akordu	!	!	!
4e 4c/	5 3	4cc\	.
!!LO:LB:g=original
=5	=5	=5	=5
*	*above	*	*
8c/L	5	8cc\L	.
8g/	.	8ee\	.
8e/	.	8gg\	.
8g/J	.	8ee\J	.
=6	=6	=6	=6
8B/L	5	8dd\L	.
8g/	1	8ff\	.
8d/	3	8gg\	.
8g/J	1	8gg\J	.
=7	=7	=7	=7
8c/L	5	8cc\L	.
8g/	1	8ee\	.
8e/	3	8gg\	.
8g/J	1	8ee\J	.
=8	=8	=8	=8
8d/L	4	8ff\L	.
8g/J	1	8dd\J	.
*	*below	*	*
!LO:TX:a:t=P:problem=palcowanie z lewej strony akordu	!	!	!
4e 4c/	5 3	4cc\	.
=9!|:	=9!|:	=9!|:	=9!|:
*>B	*	*>B	*
*	*above	*	*
!	!	!	!LO:DY:b:t=for
8c/L	4	8gg\L	f
8d/	3	8ff#X\	.
8c/	.	8ee\	.
8d/J	.	8dd\J	.
!!LO:LB:g=original
=10	=10	=10	=10
8B/L	5	8gg\L	.
8d/	3	8dd\J	.
8B/	.	4gg\	.
8d/J	.	.	.
=11	=11	=11	=11
8c/L	.	8gg\L	.
8d/	.	8ff#X\	.
8c/	.	8ee\	.
8d/J	.	8dd\J	.
=12	=12	=12	=12
8B/L	.	4gg\	.
8d/	.	.	.
8B/	.	4dd\	.
8d/J	.	.	.
=13	=13	=13	=13
8c/L	.	8gg\L	.
8d/	.	8ff#X\	.
8c/	.	8ee\	.
8d/J	.	8dd\J	.
=14	=14	=14	=14
8B/L	.	8gg\L	.
8d/	.	8dd\J	.
8B/	.	4gg\	.
8d/J	.	.	.
!!LO:LB:g=original
=15	=15	=15	=15
8c/L	.	8gg\L	.
8d/	.	8ff#X\	.
8c/	.	8ee\	.
8d/J	.	8ff#\J	.
=16	=16	=16	=16
8B/L	5	8gg\L	.
8g/	1	8gg\	.
8fn/	2	8ffn\	.
8d/J	4	8dd\J	.
=17	=17	=17	=17
!	!	!	!LO:DY:b:rj
8c/L	5	8cc\L	mf
8g/	1	8ee\	.
8e/	3	8gg\	.
8g/J	1	8ee\J	.
=18	=18	=18	=18
8B/L	5	8dd\L	.
8g/	1	8ff\J	.
8d/	3	4gg\	.
8g/J	1	.	.
=19	=19	=19	=19
8c/L	4	8cc\L	.
8g/	1	8ee\	.
8e/	2	8gg\	.
8g/J	1	8ee\J	.
!!LO:LB:g=original
=20	=20	=20	=20
*	*below	*	*
!LO:TX:a:t=P:problem=palcowanie z lewej strony akordu	!	!	!
8fL 8B/	5 2	8dd\L	.
8g/J	1	8ee\J	.
!LO:TX:a:t=P:problem=palcowanie z lewej strony akordu	!	!	!
4e 4c/	5 3	4cc\	.
=21	=21	=21	=21
*	*above	*	*
8c/L	5	8cc\L	.
8g/	.	8ee\	.
8e/	.	8gg\	.
8g/J	.	8ee\J	.
=22	=22	=22	=22
8B/L	5	8dd\L	.
8g/	.	8ff\	.
8d/	.	8gg\	.
8g/J	.	8gg\J	.
=23	=23	=23	=23
8c/L	5	8cc\L	.
8g/	.	8ee\	.
8e/	.	8gg\	.
8g/J	.	8ee\J	.
=24	=24	=24	=24
8d/L	4	8ff\L	.
8g/J	1	8dd\J	.
*	*below	*	*
!LO:TX:a:t=P:problem=palcowanie z lewej strony akordu	!	!	!
4e 4c/	5 3	4cc\	.
=:|!	=:|!	=:|!	=:|!
*-	*-	*-	*-
!!!system-decoration: [(s1,s2)]
!!!RDF**kern: > = above
!!!RDF**kern: < = below
!!!EED: Antoni Szymański
!!!EEV: 2021-05-04
!!!ENC: Krzysztof Stępień
!!!END: 2021-04-10
!!!YEC: Copyright 2022 Narodowy Instytut Fryderyka Chopina (https://polishscores.org)
!!!YEM: License CC-BY-4.0 (https://creativecommons.org/licenses/by/4.0)
